img/vk.svg

<svg width="24" height="24" viewBox="0 0 24 24" fill="none" xmlns="http://www.w3.org/2000/svg">
<path d="M24 20.6667C24 22.508 22.508 24 20.6667 24H3.33333C1.49267 24 0 22.508 0 20.6667V3.33333C0 1.492 1.49267 0 3.33333 0H20.6667C22.508 0 24 1.492 24 3.33333V20.6667Z" fill="#1976D2"/>
<path d="M19.9578 8.194C19.9885 8.09333 20.0031 8 19.9991 7.91667C19.9891 7.67533 19.8231 7.5 19.4325 7.5H17.6871C17.2465 7.5 17.0432 7.76667 16.9245 8.034C16.9245 8.034 15.8365 10.2733 14.5825 11.75C14.1759 12.1773 13.9692 12.1667 13.7492 12.1667C13.6312 12.1667 13.3332 12.024 13.3332 11.6327V8.176C13.3332 7.71333 13.2179 7.5 12.8452 7.5H9.74592C9.47459 7.5 9.33326 7.71333 9.33326 7.92733C9.33326 8.372 9.93192 8.47867 9.99992 9.72467V12.14C9.99992 12.7267 9.89792 12.8333 9.67792 12.8333C9.0846 12.8333 7.91661 10.8333 7.13462 8.212C6.96529 7.696 6.79596 7.5 6.3553 7.5H4.59333C4.08467 7.5 4 7.74933 4 8.016C4 8.49667 4.39999 11.0953 6.5833 14.0833C8.16661 16.25 10.2526 17.5 12.0992 17.5C13.2179 17.5 13.3325 17.2153 13.3325 16.7707V14.7893C13.3332 14.2553 13.4552 14.1667 13.8112 14.1667C14.0652 14.1667 14.5832 14.3333 15.5832 15.5C16.7365 16.8453 16.9458 17.5 17.6072 17.5H19.3525C19.7578 17.5 19.9905 17.33 19.9998 17C20.0018 16.916 19.9898 16.822 19.9625 16.7173C19.8331 16.3333 19.2398 15.3947 18.4998 14.5C18.0898 14.0047 17.6852 13.514 17.4992 13.2473C17.3745 13.0733 17.3272 12.9507 17.3332 12.8333C17.3392 12.71 17.4032 12.5927 17.4992 12.4287C17.4818 12.4287 19.7378 9.26133 19.9578 8.194Z" fill="white"/>
</svg>

<svg width="24" height="24" viewBox="0 0 24 24" fill="none" xmlns="http://www.w3.org/2000/svg"><path d="M24 20.667A3.333 3.333 0 0120.667 24H3.333A3.333 3.333 0 010 20.667V3.333A3.333 3.333 0 013.333 0h17.334A3.333 3.333 0 0124 3.333v17.334z" fill="#1976D2"/><path d="M19.958 8.194c.03-.1.045-.194.041-.277-.01-.242-.176-.417-.566-.417h-1.746c-.44 0-.644.267-.763.534 0 0-1.088 2.24-2.341 3.716-.407.427-.614.417-.834.417-.118 0-.416-.143-.416-.534V8.176c0-.463-.115-.676-.488-.676h-3.1c-.27 0-.412.213-.412.427 0 .445.599.552.667 1.798v2.415c0 .587-.102.693-.322.693-.593 0-1.761-2-2.543-4.621-.17-.516-.339-.712-.78-.712H4.593c-.508 0-.593.25-.593.516 0 .48.4 3.08 2.583 6.067C8.167 16.25 10.253 17.5 12.1 17.5c1.119 0 1.233-.285 1.233-.73v-1.98c.001-.535.123-.623.48-.623.253 0 .771.166 1.771 1.333 1.153 1.345 1.363 2 2.024 2h1.745c.406 0 .639-.17.648-.5a1.03 1.03 0 00-.038-.283c-.129-.384-.722-1.322-1.462-2.217-.41-.495-.815-.986-1-1.253-.125-.174-.173-.296-.167-.414.006-.123.07-.24.166-.404-.017 0 2.239-3.168 2.459-4.235z" fill="#fff"/></svg>
